package/converter/svg/light/hashtag.svg

<svg xmlns="http://www.w3.org/2000/svg" viewBox="0 0 448 512"><!-- Font Awesome Pro 6.0.0-alpha2 by @fontawesome - https://fontawesome.com License - https://fontawesome.com/license (Commercial License) --><path d="M432 144.015H346.27L367.594 51.613C369.562 43.004 364.219 34.411 355.594 32.427C346.906 30.395 338.406 35.817 336.406 44.426L313.424 144.015H186.27L207.594 51.613C209.562 43.004 204.219 34.411 195.594 32.427C186.875 30.396 178.406 35.817 176.406 44.426L153.424 144.015H48C39.156 144.015 32 151.171 32 160.015S39.156 176.014 48 176.014H146.039L109.115 336.007H16C7.156 336.007 0 343.162 0 352.006S7.156 368.005 16 368.005H101.73L80.406 460.407C78.438 469.016 83.781 477.609 92.406 479.594C93.625 479.875 94.812 480 96 480C103.281 480 109.875 475 111.594 467.594L134.576 368.005H261.73L240.406 460.407C238.438 469.016 243.781 477.609 252.406 479.594C253.625 479.875 254.812 480 256 480C263.281 480 269.875 475 271.594 467.594L294.576 368.005H400C408.844 368.005 416 360.849 416 352.006S408.844 336.007 400 336.007H301.961L338.885 176.014H432C440.844 176.014 448 168.858 448 160.015S440.844 144.015 432 144.015ZM269.115 336.007H141.961L178.885 176.014H306.039L269.115 336.007Z"/></svg>

<svg xmlns="http://www.w3.org/2000/svg" viewBox="0 0 448 512"><!--! Font Awesome Pro 6.6.0 by @fontawesome - https://fontawesome.com License - https://fontawesome.com/license (Commercial License) Copyright 2024 Fonticons, Inc. --><path d="M207.6 51.6c2-8.6-3.4-17.2-12-19.2s-17.2 3.4-19.2 12l-23 99.6L48 144c-8.8 0-16 7.2-16 16s7.2 16 16 16l98 0L109.1 336 16 336c-8.8 0-16 7.2-16 16s7.2 16 16 16l85.7 0L80.4 460.4c-2 8.6 3.4 17.2 12 19.2s17.2-3.4 19.2-12l23-99.6 127.2 0-21.3 92.4c-2 8.6 3.4 17.2 12 19.2s17.2-3.4 19.2-12l23-99.6L400 368c8.8 0 16-7.2 16-16s-7.2-16-16-16l-98 0 36.9-160 93.1 0c8.8 0 16-7.2 16-16s-7.2-16-16-16l-85.7 0 21.3-92.4c2-8.6-3.4-17.2-12-19.2s-17.2 3.4-19.2 12l-23 99.6-127.2 0 21.3-92.4zM178.9 176L306 176 269.1 336 142 336l36.9-160z"/></svg>
